X:237
T: Bridget My Treasure
N: O'Farrell's Pocket Companion v.3 (Sky ed. p.114)
M: 3/4
L: 1/8
R: blank
Q: 140 % "slow"
K: G
G| G2 GB d>G| F2 F2 A>F| E2 D>E F>D| E>D D3 :|
B/c/| d>B d2 g>f| e>d B3d| ed/B/ A2 BG| A>G G3 :|
